other/smart_hq.svg

<?xml version="1.0" encoding="UTF-8"?><svg id="a" xmlns="http://www.w3.org/2000/svg" viewBox="0 0 48 48"><defs><style>.b{fill:none;stroke:#fff;stroke-linecap:round;stroke-linejoin:round;}</style></defs><path class="b" d="m30.2834,39.4183c0-3.4702-2.8132-6.2834-6.2834-6.2834s-6.2834,2.8132-6.2834,6.2834H7.6712v-21.3515L24,5.5l16.3288,12.5668v21.3515h-10.0454Z"/><path class="b" d="m10.1825,28.1122c8.7948-8.7948,18.8402-8.7948,27.6349,0"/><path class="b" d="m13.9546,33.1349c6.2734-6.2834,13.8175-6.2834,20.0909,0"/><path class="b" d="m24,36.3367c1.7009,0,3.0817,1.3807,3.0817,3.0817s-1.3807,3.0817-3.0817,3.0817-3.0817-1.3807-3.0817-3.0817,1.3807-3.0817,3.0817-3.0817Z"/></svg>

<svg xmlns="http://www.w3.org/2000/svg" viewBox="0 0 48 48"><defs><style>.a{fill:none;stroke:#fff;stroke-linecap:round;stroke-linejoin:round;}</style></defs> <path class="a"          d="M30.28,39.41A6.28 6.28 -0.00 0 0 17.72,39.41L7.68,39.41L7.68,18.07L24.00,5.51L40.32,18.07L40.32,39.41L30.28,39.41z"/> <path class="a"          d="M10.19,28.11C18.98,19.32,29.02,19.32,37.81,28.11"/> <path class="a"          d="M13.96,33.13C20.23,26.85,27.77,26.85,34.04,33.13"/> <path class="a"          d="M24.00,36.33C25.70,36.33,27.08,37.71,27.08,39.41C27.08,41.11,25.70,42.49,24.00,42.49C22.30,42.49,20.92,41.11,20.92,39.41C20.92,37.71,22.30,36.33,24.00,36.33z"/></svg>
